public/icons/tech-stack/graphql.svg

<svg width="63" height="71" viewBox="0 0 63 71" fill="none" xmlns="http://www.w3.org/2000/svg">
<g clip-path="url(#clip0_34_308)">
<path fill-rule="evenodd" clip-rule="evenodd" d="M37.5478 8.1263L52.1033 16.5452C52.5235 16.0998 53.0057 15.7175 53.5351 15.4102C56.5536 13.6717 60.404 14.7039 62.1574 17.7281C63.8929 20.7522 62.8625 24.6091 59.8437 26.3657C59.3183 26.6687 58.7521 26.8946 58.1626 27.0362V43.8802C58.7457 44.0221 59.3057 44.2464 59.8257 44.5463C62.8625 46.3028 63.8929 50.16 62.1395 53.1842C60.404 56.2081 56.5357 57.2403 53.5168 55.502C52.932 55.1659 52.4052 54.7374 51.9566 54.2332L37.4897 62.6003C37.7016 63.2429 37.8092 63.9155 37.8084 64.5922C37.8084 68.069 34.9887 70.9122 31.4998 70.9122C28.0109 70.9122 25.1912 68.087 25.1912 64.5922C25.1912 63.971 25.2803 63.371 25.4464 62.8042L10.8949 54.3877C10.4793 54.8243 10.0038 55.1995 9.4828 55.502C6.446 57.2403 2.59562 56.2081 0.860163 53.1842C-0.875044 50.16 0.155351 46.3028 3.17394 44.5463C3.69395 44.2463 4.25393 44.022 4.83704 43.88V27.0362C4.24749 26.8946 3.68135 26.6687 3.15597 26.3657C0.13714 24.6274 -0.893255 20.7522 0.842198 17.7281C2.57765 14.7039 6.44575 13.6717 9.46459 15.4102C9.991 15.7159 10.4709 16.0957 10.8895 16.5381L25.4491 8.11693C25.2775 7.53337 25.1906 6.9281 25.1912 6.31974C25.1912 2.82521 28.0109 0 31.4998 0C34.9887 0 37.8084 2.82496 37.8084 6.31974C37.8084 6.94789 37.7174 7.5541 37.5478 8.1263ZM36.0314 10.7203L50.6216 19.1589C50.3892 19.9725 50.3226 20.8245 50.4256 21.6644C50.5287 22.5043 50.7992 23.3148 51.2213 24.0478C52.1094 25.5955 53.5562 26.6215 55.162 27.0214V43.8864C55.08 43.9064 54.9986 43.9283 54.9176 43.9515L35.8618 10.8891C35.9194 10.8339 35.976 10.7775 36.0314 10.7203ZM27.1417 10.8928L8.08621 43.9547C8.00382 43.9308 7.92095 43.9086 7.83766 43.8881V27.0214C9.44342 26.6215 10.8902 25.5955 11.7784 24.0478C12.2012 23.3134 12.4721 22.5012 12.5747 21.6596C12.6773 20.818 12.6096 19.9643 12.3756 19.1495L26.9616 10.7134C27.0204 10.7743 27.0805 10.8342 27.1417 10.8926V10.8928ZM33.2626 12.3905L52.3137 45.4449C51.8773 45.8621 51.5032 46.3401 51.2031 46.8642C50.9036 47.3851 50.6798 47.9461 50.5381 48.5302H12.462C12.3202 47.9461 12.0961 47.3851 11.7966 46.8642C11.4954 46.3437 11.122 45.8686 10.6877 45.4531L29.7425 12.392C30.3137 12.5567 30.9053 12.6401 31.4998 12.6395C32.1119 12.6395 32.7032 12.5527 33.2626 12.3905ZM36.1653 60.3347L50.6607 51.9508C50.6172 51.8139 50.5784 51.6756 50.5443 51.5361H12.4539C12.4337 51.6181 12.4119 51.6996 12.3884 51.7807L26.9547 60.2058C27.5429 59.593 28.2489 59.1059 29.03 58.7736C29.8111 58.4414 30.6512 58.2709 31.4998 58.2725C32.3781 58.271 33.2469 58.4537 34.0505 58.8088C34.854 59.164 35.5744 59.6838 36.1653 60.3347Z" fill="#E535AB"/>
</g>
<defs>
<clipPath id="clip0_34_308">
<rect width="63" height="71" fill="white"/>
</clipPath>
</defs>
</svg>

<svg xmlns="http://www.w3.org/2000/svg" width="63" height="71" fill="none" xmlns:v="https://vecta.io/nano"><g clip-path="url(#A)"><path fill-rule="evenodd" d="M37.548 8.126l14.555 8.419c.42-.445.902-.828 1.432-1.135 3.019-1.739 6.869-.706 8.622 2.318a6.34 6.34 0 0 1-2.314 8.638 6.32 6.32 0 0 1-1.681.671V43.88a6.32 6.32 0 0 1 1.663.666 6.31 6.31 0 0 1 2.314 8.638c-1.735 3.024-5.604 4.056-8.623 2.318a6.27 6.27 0 0 1-1.56-1.269L37.49 62.6c.212.643.319 1.315.319 1.992 0 3.477-2.82 6.32-6.309 6.32a6.31 6.31 0 0 1-6.309-6.32 6.35 6.35 0 0 1 .255-1.788l-14.551-8.416c-.416.437-.891.812-1.412 1.114-3.037 1.738-6.887.706-8.623-2.318a6.34 6.34 0 0 1 2.314-8.638 6.32 6.32 0 0 1 1.663-.666V27.036a6.32 6.32 0 0 1-1.681-.671C.137 24.627-.893 20.752.842 17.728s5.604-4.056 8.622-2.318c.526.306 1.006.686 1.425 1.128l14.56-8.421a6.35 6.35 0 0 1-.258-1.797A6.31 6.31 0 0 1 31.5 0a6.31 6.31 0 0 1 6.309 6.32c0 .628-.091 1.234-.261 1.807zm-1.516 2.594l14.59 8.439a6.32 6.32 0 0 0 .6 4.889c.888 1.548 2.335 2.574 3.941 2.974v16.865l-.244.065-19.056-33.062.17-.169zm-8.89.172L8.086 43.955l-.249-.067V27.021c1.606-.4 3.053-1.426 3.941-2.974a6.32 6.32 0 0 0 .597-4.898l14.586-8.436.18.179h0zm6.121 1.498l19.051 33.054a6.28 6.28 0 0 0-1.111 1.419 6.34 6.34 0 0 0-.665 1.666H12.462c-.142-.584-.366-1.145-.665-1.666s-.675-.996-1.109-1.411l19.055-33.061a6.32 6.32 0 0 0 3.52-.002zm2.903 47.944l14.495-8.384-.116-.415h-38.09l-.066.245 14.566 8.425a6.29 6.29 0 0 1 2.075-1.432 6.28 6.28 0 0 1 2.47-.501c.878-.002 1.747.181 2.551.536s1.524.875 2.115 1.526z" fill="#e535ab"/></g><defs><clipPath id="A"><path fill="#fff" d="M0 0h63v71H0z"/></clipPath></defs></svg>
